!!!COM: Sousa, John Phillip
!!!CDT: 1854/11/05/-1932/04/08/
!!!OTL: Transit of Venus March
!!!ODT: 1882///
!!!PDT: 1896///
!!!PPR: J.W. Pepper
!!!PPP: Philadelphia, Pennsylvania
!!!ONB: Arrangement for keyboard
!!!URL: http://lcweb2.loc.gov/diglib/ihas/loc.natlib.ihas.100010997/default.html Library of Congress
**kern	**kern	**dynam
*staff2	*staff1	*staff1/2
*Ipiano	*Ipiano	*Ipiano
*>[I,A,A1,A,A2,B,B1,B,B2,C]	*>[I,A,A1,A,A2,B,B1,B,B2,C]	*>[I,A,A1,A,A2,B,B1,B,B2,C]
*>norep[I,A,A2,B,B2,C]	*>norep[I,A,A2,B,B2,C]	*>norep[I,A,A2,B,B2,C]
*>I	*>I	*>I
*clefF4	*clefG2	*clefG2
*k[f#]	*k[f#]	*k[f#]
*G:	*G:	*G:
*M6/8	*M6/8	*M6/8
*MM180	*MM180	*MM180
=1-	=1-	=1-
8G\ 8g\L	8gg\ 8ggg\L	ff
8F#\ 8f#\	8ff#\ 8fff#\	<
8E\ 8e\J	8ee\ 8eee\J	.
8D\ 8d\L	8dd\ 8ddd\L	.
8E\ 8e\	8ee\ 8eee\	.
8F#\ 8f#\J	8ff#\ 8fff#\J	.
=2	=2	=2
8G\ 8g\L	8gg\ 8ggg\L	.
8F#\ 8f#\	8ff#\ 8fff#\	.
8E\ 8e\J	8ee\ 8eee\J	.
8D\ 8d\L	8dd\ 8ddd\L	.
8E\ 8e\	8ee\ 8eee\	.
8D\ 8d\J	8dd\ 8ddd\J	.
=3	=3	=3
8C#\ 8c#\L	8cc#\ 8ccc#\L	>
8D\ 8d\	8dd\ 8ddd\	.
8C#\ 8c#\J	8cc#\ 8ccc#\J	.
8Cn\ 8cn\L	8ccn\ 8cccn\L	.
8BB\ 8B\	8b\ 8bb\	.
8AA\ 8A\J	8a\ 8aa\J	.
=4	=4	=4
4GG/ 4G/	4g\ 4gg\	.
8r	8r	.
4r	8dd\L	mf
.	8ee\	.
8r	8dd\J	.
=5!|:	=5!|:	=5!|:
*>A	*>A	*>A
4GG/	(4cc#^\	.
8D\ 8G\ 8B\	8dd\)	.
4D\	4g/ 4b/	.
8D\ 8G\ 8B\	8g/ 8b/	.
=6	=6	=6
4GG/	4g/ 4b/	.
8D\ 8G\ 8B\	8g/ 8b/	.
4D\	8g\ 8b\L	.
.	8ee\	.
8D\ 8G\ 8B\	8dd\J	.
=7	=7	=7
4AA/	(4cc#^\	.
8F#\ 8A\ 8c\	8dd\)	.
4D\	4f#/ 4a/	.
8F#\ 8A\ 8c\	8f#/ 8a/	.
=8	=8	=8
4AA/	4f#/ 4a/	.
8F#\ 8A\ 8c\	8f#/ 8a/	.
4D\	8a\L	.
.	8dd\	.
8F#\ 8A\ 8c\	8aa\J	.
=9	=9	=9
4AA/	4a\ 4cc\ 4gg\	ff
8F#\ 8A\ 8c\	8a\ 8cc\ 8gg\	.
4D\	4a\ 4cc\ 4gg\	.
8F#\ 8A\ 8c\	8a\ 8cc\ 8ff#\	.
=10	=10	=10
4AA/	4a\ 4cc\ 4ff#\	<
8F#\ 8A\ 8c\	8a\ 8cc\ 8ff#\	.
4D\	4a\ 4cc\ 4ff#\	.
8F#\ 8A\ 8c\	8cc\ 8ee\	.
=11	=11	=11
4AA/	8cc\ 8ee\L	>
.	8dd\ 8ff#\	.
8F#\ 8A\ 8c\	8ee\ 8gg\J	.
4D\	4dd\ 4ff#\	.
8F#\ 8A\ 8c\	8cc\ 8ee\	.
=12	=12	=12
4GG/	4.b\ 4.dd\	.
8D\ 8G\ 8B\	.	.
4D\	8b\L	.
.	8ee\	.
8D\ 8G\ 8B\	8dd\J	.
=13	=13	=13
4GG/	(4cc#^\	f
8D\ 8G\ 8B\	8dd\)	.
4D\	4b\	.
8D\ 8G\ 8B\	8b\	.
=14	=14	=14
4GG/	4b\	.
8D\ 8G\ 8B\	8b\	.
4D\	8b\L	.
.	8ee\	.
8D\ 8G\ 8B\	8dd\J	.
=15	=15	=15
4AA/	(4cc#^\	.
8F#\ 8A\ 8d\	8dd\)	.
4D\	4a/	.
8F#\ 8A\ 8d\	8a/	.
=16	=16	=16
4D\	4a/	.
8F#\ 8A\ 8d\	8a/	.
4F#\ 4A\ 4d\	8a\L	.
.	8dd\	.
8F#\ 8A\ 8d\	8ff#\J	.
=17	=17	=17
4D\	4aa\	.
8F#\ 8A\ 8d\	8bb\	.
4F#\ 4A\ 4d\	8aa\L	.
.	8ff#\	.
8F#\ 8A\ 8d\	8dd\J	.
=18	=18	=18
4D\	8a\L	.
.	8dd\	.
8F#\ 8A\ 8d\	8ff#\J	.
4F#\ 4A\ 4d\	8aa\L	.
.	8bb\	.
8F#\ 8A\ 8d\	8bb#\J	.
=19	=19	=19
4E\	4ccc#\	.
8G\ 8A\ 8c#\	8bb\	.
4AA/	8aa\L	.
.	8gg\	.
8E\ 8G\ 8A\ 8c#\	8ee\J	.
=20	=20	=20
*>A1	*>A1	*>A1
4.F#\ 4.A\ 4.d\	4.dd\	.
4.D\ 4.F#\ 4.A\ 4.cn\	8dd\L	mf
.	8ee\	.
.	8dd\J	.
=21:|!	=21:|!	=21:|!
*>A2	*>A2	*>A2
4F#\ 4A\ 4d\	4dd\	.
8r	8dd\	<
4r	8dd\L	.
.	8cc#\	.
8r	8dd\J	.
=22!|:	=22!|:	=22!|:
*>B	*>B	*>B
4AA/	4ee\	ff
8D\ 8F#\ 8c\	8dd\	.
4DD/	8ccc\L	.
.	8bb\	.
8D\ 8F#\ 8c\	8aa\J	.
=23	=23	=23
4GG/	4gg\	.
8D\ 8G\ 8B\	8aa\	.
4DD/	8bb\L	.
.	8aa\	.
8D\ 8G\ 8B\	8gg\J	.
=24	=24	=24
4AA/	8ff#\L	.
.	8gg\	.
8D\ 8F#\ 8c\	8aa\J	.
4DD/	4ff#\	.
8D\ 8F#\ 8c\	8ee\	.
=25	=25	=25
4GG/	4.dd\	.
8D\ 8G\ 8B\	.	.
4D\ 4G\ 4B\	8dd\L	.
.	8ee\	.
8D\ 8G\ 8B\	8dd\J	.
=26	=26	=26
4D\ 4F#\ 4A\ 4c\	4f#/ (4cc/	p
8D\ 8F#\ 8A\ 8c\	8dd\)	.
4D\ 4G\ 4B\	4g/ (4b/	.
8D\ 8G\ 8B\	8dd\)	.
=27	=27	=27
4D\ 4F#\ 4A\ 4c\	4f#/ (4cc/	.
8D\ 8F#\ 8A\ 8c\	8dd\)	.
4D\ 4G\ 4B\	4g/ (4b/	.
8D\ 8G\ 8B\	8dd\)	.
=28	=28	=28
4AA/	4f#/ (4cc/	.
8D\ 8F#\ 8c\	8dd\)	.
4DD/	4a\ 4cc\ (4ff#\	.
8D\ 8F#\ 8c\	8ee\)	.
=29	=29	=29
4GG/	4.b\ 4.dd\	.
8D\ 8G\ 8B\	.	.
4D\ 4G\ 4B\	8dd\L	.
.	8gg\	.
8D\ 8G\ 8B\	8bb\J	.
=30	=30	=30
4AA/	4ee\	ff
8D\ 8F#\ 8c\	8dd\	.
4DD/	8ccc\L	.
.	8bb\	.
8D\ 8F#\ 8c\	8aa\J	.
=31	=31	=31
4GG/	4gg\	.
8D\ 8G\ 8B\	8aa\	.
4DD/	8bb\L	.
.	8aa\	.
8D\ 8G\ 8B\	8gg\J	.
=32	=32	=32
4FF#/	8ff#\L	.
.	8gg\	.
8D\ 8F#\ 8c\	8aa\J	.
4DD/	4ff#\	.
8D\ 8F#\ 8c\	8ee\	.
=33	=33	=33
4GG/ 4G/	4.dd\	.
8D\ 8G\ 8B\	.	.
4D\ 4G\ 4B\	8dd\L	.
.	8ee\	.
8D\ 8G\ 8B\	8dd\J	.
=34	=34	=34
4D\ 4F#\ 4A\ 4c\	4f#/ (4cc/	p
8D\ 8F#\ 8A\ 8c\	8dd\)	.
4D\ 4G\ 4B\	4g/ (4b/	.
8D\ 8G\ 8B\	8dd\)	.
=35	=35	=35
4D\ 4F#\ 4A\ 4c\	4f#/ (4cc/	.
8D\ 8F#\ 8A\ 8c\	8dd\)	.
4D\ 4G\ 4B\	4g/ (4b/	.
8D\ 8G\ 8B\	8dd\)	.
=36	=36	=36
4AA/	8cc\L	f
.	8dd\	.
8D\ 8F#\ 8c\	8ee\J	.
4DD/	4ff#\	.
8D\ 8F#\ 8c\	8dd\	.
=37	=37	=37
*>B1	*>B1	*>B1
4D\ 4G\ 4B\	4gg\	.
8r	8dd\	<
4r	8dd\L	.
.	8cc#\	.
8r	8dd\J	.
=38:|!	=38:|!	=38:|!
*>B2	*>B2	*>B2
4D\ 4G\ 4B\	4gg\	.
8r	8r	.
4GG^/ 4G^/	4g^\ 4b^\ 4dd^\ 4gg^\	.
8r	8r	.
=39	=39	=39
!! Trio
*>C	*>C	*>C
*k[]	*k[]	*k[]
*M6/8	*M6/8	*M6/8
8C\L	4.e/ 4.ee/	mf
8r	.	.
8E\ 8G\ 8c\J	.	.
8BB\L	4.e/ 4.ee/	.
8r	.	.
8E\ 8G#\ 8d\J	.	.
=40	=40	=40
8AA\L	4.e/ 4.ee/	.
8r	.	.
8E\ 8A\ 8c\J	.	.
8GG\L	4.e/ 4.ee/	.
8r	.	.
8G\ 8c\J	.	.
=41	=41	=41
8GG\L	4.g\ 4.gg\	<
8r	.	.
8G\ 8B\ 8d\J	.	.
8AA\L	4.f#/ 4.ff#/	.
8r	.	.
8A\ 8c\ 8d\J	.	.
=42	=42	=42
8BB\L	4.fn/ 4.ffn/	ff
8r	.	.
8G\ 8B\ 8d\J	.	.
8C\L	4.e/ 4.ee/	.
8r	.	.
8G\ 8c\J	.	.
=43	=43	=43
4F\	4.f/ 4.dd/	.
8F\ 8A\ 8d\	.	.
4F\ 4A\ 4d\	4.f/ 4.dd/	.
8F\ 8A\ 8d\	.	.
=44	=44	=44
4GG/ 4G/	8dd\	.
.	[4ee\	.
8G\ 8B\ 8f\	.	.
4G\ 4B\ 4f\	4ee\]	.
8G\ 8B\ 8f\	8dd\	.
=45	=45	=45
4.G\ 4.c\ 4.e\	8cc\	.
.	[4ccc\	.
4.F#\ 4.A\ 4.c\ 4.d#\	4ccc\]	.
.	8aa\	.
=46	=46	=46
4.G\ 4.c\ 4.e\	4.gg\	.
4.GG/ 4.G/	4b\ 4dd\ 4gg\	.
.	8ff\	.
=47	=47	=47
8C\L	4.e/ 4.ee/	.
8r	.	.
8E\ 8G\ 8c\J	.	.
8BB\L	4.e/ 4.ee/	.
8r	.	.
8E\ 8G#\ 8d\J	.	.
=48	=48	=48
8AA\L	4.e/ 4.ee/	.
8r	.	.
8E\ 8A\ 8c\J	.	.
8GG\L	4.e/ 4.ee/	.
8r	.	.
8G\ 8c\J	.	.
=49	=49	=49
8GG\L	4.g\ 4.gg\	<
8r	.	.
8G\ 8B\ 8d\J	.	.
8AA\L	4.f#\ 4.ff#\	.
8r	.	.
8A\ 8c\ 8d\J	.	.
=50	=50	=50
8BB\L	4.fn\ 4.ffn\	ff
8r	.	.
8G\ 8B\ 8d\J	.	.
8C\L	4.e/ 4.ee/	.
8r	.	.
8G\ 8c\J	.	.
=51	=51	=51
4F\	4.f/ 4.a/ 4.dd/	.
8F\ 8A\ 8d\	.	.
4F\ 4A\ 4d\	4.f/ 4.a/ 4.dd/	.
8F\ 8A\ 8d\	.	.
=52	=52	=52
4GG/ 4G/	8dd\	.
.	[4ee\	.
8G\ 8B\ 8f\	.	.
4G\ 4B\ 4f\	4ee\]	.
8G\ 8B\ 8f\	8dd\	.
=53	=53	=53
4C\ 4c\	[2.e/ [2.g/ [2.cc/	.
8AA\ 8A\	.	.
4GG/ 4G/	.	.
8EE/ 8E/	.	.
=54	=54	=54
4CC/ 4C/	4e/] 4g/] 4cc/]	.
8r	8cc\	.
4r	4cc\	.
8r	8cc\	.
=55	=55	=55
*k[b-e-a-d-g-]	*k[b-e-a-d-g-]	*k[b-e-a-d-g-]
4D-\	4.dd-\	f
8A-\ 8d-\ 8f\	.	.
4A-\ 4d-\ 4f\	4.dd-\	.
8A-\ 8d-\ 8f\	.	.
=56	=56	=56
4D-\	4.dd-\	.
8A-\ 8d-\ 8f\	.	.
4A-\ 4d-\ 4f\	4.dd-\	.
8A-\ 8d-\ 8f\	.	.
=57	=57	=57
4D-\	4.dd-\	.
8A-\ 8d-\ 8f\	.	.
4AA-/	4.aa-\	.
8A-\ 8d-\ 8f\	.	.
=58	=58	=58
4D-\	4.ff\	.
8A-\ 8d-\ 8f\	.	.
4AA-/	4.dd-\	.
8A-\ 8d-\ 8f\	.	.
=59	=59	=59
4C/	(8cc\	.
.	[4ccc\	.
8A-\ 8c\ 8g-\	.	.
4AA-/	4ccc\])	.
8A-\ 8c\ 8g-\	8ccc\	.
=60	=60	=60
4AA-/	4.cc\ 4.ccc\	.
8A-\ 8c\ 8g-\	.	.
4A-\ 4c\ 4g-\	4.cc\ 4.bb-\	.
8A-\ 8c\ 8g-\	.	.
=61	=61	=61
4DD-/ 4D-/	[2.dd-\ [2.ff\ [2.aa-\	.
8EE-/ 8E-/	.	.
4FF/ 4F/	.	.
8GG-/ 8G-/	.	.
=62	=62	=62
4.AA-\ 4.A-\	4.dd-\] 4.ff\] 4.aa-\]	.
4.A-\ 4.c\ 4.e-\ 4.g-\	4aa-\	.
.	8aa-\	.
=63	=63	=63
4D-\	4.ff\ 4.aa-\ 4.ddd-\	.
8A-\ 8d-\ 8f\	.	.
4A-\ 4d-\ 4f\	4.ff\ 4.aa-\ 4.ddd-\	.
8A-\ 8d-\ 8f\	.	.
=64	=64	=64
4E-\	4.gg-\ 4.aa-\ 4.ccc\	.
8A-\ 8c\ 8g-\	.	.
4A-\ 4c\ 4g-\	4.gg-\ 4.aa-\ 4.ccc\	.
8A-\ 8c\ 8g-\	.	.
=65	=65	=65
4En\	4.dd-\ 4.ggn\ 4.bb-\	.
8B-\ 8d-\ 8en\	.	.
4B-\ 4d-\ 4e\	4.dd-\ 4.gg\ 4.bb-\	.
8B-\ 8d-\ 8e\	.	.
=66	=66	=66
4F\	4.cc\ 4.ff\ 4.aa-\	.
8F\ 8A-\ 8c\	.	.
4F\ 4A-\ 4c\	4.cc\ 4.ff\ 4.aa-\	.
8F\ 8A-\ 8c\	.	.
=67	=67	=67
4.GGn/ 4.Gn/	4.cc\ 4.ee-\ 4.ggn\	ff
4.GG/ 4.G/	4.cc\ 4.ee-\ 4.gg\	.
=68	=68	=68
4.FF/ 4.F/	4.cc\ 4.ff\ 4.aa-\	.
4.FF#/ 4.F#/	4.cc\ 4.ee-\ 4.aa-\	.
=69	=69	=69
4.GGn^/ 4.Gn^/	4bn\ 4ddn\ 4ggn\	.
.	8gg^\	.
4.FF^/ 4.F^/	4gg^\	.
.	8gg^\	.
=70	=70	=70
4.DDn^/ 4.Dn^/	4gg-^\	.
.	8gg-^\	.
4.GGn^/ 4.Gn^/	4gg-^\	.
.	8gg-^\	.
=71	=71	=71
*k[]	*k[]	*k[]
4C\ 4c\	4.ee\ 4.eee\	ff
8G\ 8c\ 8e\	.	.
4BB\ 4B\	4.ee\ 4.eee\	.
8G#\ 8B\ 8d\	.	.
=72	=72	=72
4AA\ 4A\	4.ee\ 4.eee\	.
8E\ 8A\ 8c\	.	.
4GG/ 4G/	4.ee\ 4.eee\	.
8G\ 8c\ 8e\	.	.
=73	=73	=73
4GG/ 4G/	4.gg\ 4.ggg\	.
8G\ 8B\ 8f\	.	.
4AA\ 4A\	4.ff#\ 4.fff#\	.
8c\ 8d\ 8f#\	.	.
=74	=74	=74
4BB\ 4B\	4.ffn\ 4.fffn\	.
8G\ 8d\ 8fn\	.	.
4C\ 4c\	4.ee\ 4.eee\	.
8G\ 8c\ 8e\	.	.
=75	=75	=75
4FF/ 4F/	4.dd^\ 4.ddd^\	.
8F\ 8A\ 8d\	.	.
4F\ 4A\ 4d\	4.dd^\ 4.ddd^\	.
8F\ 8A\ 8d\	.	.
=76	=76	=76
4GG/ 4G/	8dd\ 8ddd\	.
.	[4ee\ [4eee\	.
8G\ 8B\ 8f\	.	.
4G\ 4B\ 4f\	4ee\] 4eee\]	.
8G\ 8B\ 8f\	8dd\ 8ddd\	.
=77	=77	=77
4.C\ 4.c\	8cc\	.
.	[4ccc\	.
4.F#\ 4.A\ 4.c\ 4.e-\	4ccc\]	.
.	8aa\	.
=78	=78	=78
4.G\ 4.c\ 4.en\	4.gg\	.
4.G\ 4.B\ 4.d\ 4.f\	4gg\ 4ggg\	.
.	8ff\ 8fff\	.
=79	=79	=79
4C\ 4c\	4.ee^\ 4.eee^\	.
8G\ 8c\ 8e\	.	.
4BB\ 4B\	4.ee^\ 4.eee^\	.
8G#\ 8B\ 8d\	.	.
=80	=80	=80
4AA\ 4A\	4.ee^\ 4.eee^\	.
8E\ 8A\ 8c\	.	.
4GG/ 4G/	4.ee^\ 4.eee^\	.
8G\ 8c\ 8e\	.	.
=81	=81	=81
4GG/ 4G/	4.gg^\ 4.ggg^\	.
8G\ 8B\ 8f\	.	.
4AA\ 4A\	4.ff#^\ 4.fff#^\	.
8c\ 8d\ 8f#\	.	.
=82	=82	=82
4BB\ 4B\	4.ffn^\ 4.fffn^\	.
8G\ 8d\ 8fn\	.	.
4C\ 4c\	4.ee^\ 4.eee^\	.
8G\ 8c\ 8e\	.	.
=83	=83	=83
4FF/ 4F/	4.dd^\ 4.ddd^\	.
8F\ 8A\ 8d\	.	.
4F\ 4A\ 4d\	4.dd^\ 4.ddd^\	.
8F\ 8A\ 8d\	.	.
=84	=84	=84
4GG/ 4G/	8dd\ 8ddd\	.
.	[4ee\ [4eee\	.
8G\ 8B\ 8d\ 8f\	.	.
4G\ 4B\ 4d\ 4f\	4ee\] 4eee\]	.
8G\ 8B\ 8d\ 8f\	8dd\ 8ddd\	.
=85	=85	=85
4G\ 4c\ 4e\	[2.cc\ [2.ccc\	.
8GG/ 8G/	.	.
8AA/ 8A/L	.	.
8GG/ 8G/	.	.
8EE/ 8E/J	.	.
=86	=86	=86
4.CC/ 4.C/	4.cc\] 4.ccc\]	.
4C^\ 4c^\	4cc^\ 4ee^\ 4gg^\ 4ccc^\	p
8r	8r	.
==	==	==
*-	*-	*-
!!!ENC: Craig Stuart Sapp
!!!END: 2008/02/23/
